X:1
T:Title
L:1/8
Q:1/4=100
M:4/4
K:F
V:1 treble nm="Grand Piano"
V:1
 F3 D F2 A2 | G3 F E2 E2 | G3 F E2 G2 | F3 E F4 | A3 G F2 A2 | G3 F E2 E2 | G3 F E2 G2 | F3 E D4 | %8
w: ????~????~????? * * *||||||||
 d3 d d2 A2 | c3 c c2 G2 | B3 B B2 F2 | A3 A A4 | A3 G F2 A2 | G3 F E2 E2 | E3 F G2 A2 | F3 E D4 | %16
w: ||||||||
 D3 D D2 A,2 | E3 E E2 A,2 | F3 F ^F2 F2 | G3 A B4 | B3 B B2 G2 | ^c3 c c2 A2 | d3 d d2 A2 | %23
w: |||||||
 F3 E D4 | D3 E F2 D2 | A3 _A G2 G2 | E3 F G2 E2 | B3 A A4 | G3 A B2 G2 | d3 ^c d2 A2 | %30
w: |||||||
 A3 G E2 G2 | F3 E D4 |] %32
w: ||

